img/union-3.svg

<svg fill="none" height="58" viewBox="0 0 58 58" width="58" xmlns="http://www.w3.org/2000/svg"><path d="m57.2689 56.8798h.7358v.7357h-.7358zm-27.9597-55.18368c-15.0354 0-27.22392 12.18858-27.22392 27.22388h-1.471566c0-15.848 12.847386-28.69545 28.695486-28.695449zm27.2239 27.22388c0-15.0353-12.1885-27.22388-27.2239-27.22388v-1.471569c15.8481.000001 28.6955 12.847449 28.6955 28.695449zm0 27.9598v-27.9598h1.4716v27.9598zm-27.2239-.7358h27.9597v1.4715h-27.9597zm-27.22392-27.224c0 15.0354 12.18852 27.224 27.22392 27.224v1.4715c-15.8481 0-28.695487-12.8474-28.695486-28.6955z" fill="#fff500"/></svg>

<svg width="58" height="58" viewBox="0 0 58 58" fill="none" xmlns="http://www.w3.org/2000/svg">
<path d="M57.2689 56.8798L58.0047 56.8798L58.0047 57.6155L57.2689 57.6155L57.2689 56.8798ZM29.3092 1.69612C14.2738 1.69612 2.08528 13.8847 2.08528 28.92L0.613714 28.92C0.613714 13.072 13.4611 0.22455 29.3092 0.224551L29.3092 1.69612ZM56.5331 28.92C56.5331 13.8847 44.3446 1.69612 29.3092 1.69612L29.3092 0.224551C45.1573 0.224552 58.0047 13.072 58.0047 28.92L56.5331 28.92ZM56.5331 56.8798L56.5331 28.92L58.0047 28.92L58.0047 56.8798L56.5331 56.8798ZM29.3092 56.144L57.2689 56.144L57.2689 57.6155L29.3092 57.6155L29.3092 56.144ZM2.08528 28.92C2.08528 43.9554 14.2738 56.144 29.3092 56.144L29.3092 57.6155C13.4611 57.6155 0.613713 44.7681 0.613714 28.92L2.08528 28.92Z" fill="#FFF500"/>
</svg>
